X:1
T:Title
%%score { ( 1 3 5 ) | ( 2 4 ) }
L:1/8
M:6/8
K:G
V:1 treble nm="Grand Piano"
V:3 treble 
V:5 treble 
V:2 bass 
V:4 bass 
V:1
 z3 z2[Q:1/4=75] D/D/ | z3 .B3 | .B3 z/ G3/2 z | z z/ F/G AGE | D .D2[K:bass] z DD | %5
 z3[K:treble] .B3 | .B3 z/ G3/2 z | .D>GG FGA |[M:5/8] G-G- G3 |[M:1/8] z |[M:3/4] c2 z2 z2 | %11
 z z/ B/ BB _B=B | d2 z2 z2 | A6[K:bass] | z2 z .B3 | B2 z z/ G/- G z | DD/D/ GF GA | %17
[M:5/8] G-G- G3 |[M:1/8] B |[M:3/4] [Ec]>[Ec] [Ec][Ec] [Ge]2 | ed- d/c/B d2 | d>e dB AG | %22
 [FA]2 [GB] [FA]2[K:bass] [F,CD] | [G,B,D][K:treble][B,DG] [CDA][DGB]/[DGB]/- [DGB]>[DGB] | %24
 [DGB][DFc] [=Fd][Ed]/[Ec]/- [Ec][EA] | B>A GF GA |[M:5/8] [B,DG]-[B,DG]- [B,DG]3 |] %27
V:2
 z6 | z [G,B,D][G,B,D] z [G,B,][G,B,D] | z [F,A,C][F,A,CD] z [G,B,][G,B,D] | %3
 z [G,C][G,CE] z [G,CE][G,C] | z [G,B,][G,B,] z [G,B,][G,B,] | z [G,B,D][G,B,D] z [G,B,][G,B,D] | %6
 z [G,B,][G,B,D] z [G,C][G,C] | z [G,B,][G,B,D] z [F,A,CD][F,A,CD] |[M:5/8] z G,G, G,,2 | %9
[M:1/8][K:treble] B |[M:3/4][K:bass] z [G,C] .[G,CE]2 [G,CE][G,C^D] | %11
 z [G,B,] .[G,B,D]2 [G,_B,^CE][G,=B,D] | z B, [B,D]G, [F,A,D][E,G,A,C] | z F, A,, D,,2 D | %14
 z [G,B,D] .[G,B,D]2 [G,B,][G,B,D] | z [F,A,B,] .[F,A,B,^D]2 [G,C][G,C] | %16
 z [G,B,] .[G,B,D]2 [F,A,CD][F,A,CD] |[M:5/8] z [G,B,][G,C] [G,,G,]2 |[M:1/8] [G,D] | %19
[M:3/4] [C,G,]>[C,G,] [C,G,][C,G,] [C,C]2 | [G,CG][G,B,G]- [G,B,G]/[G,EG]/[G,DG] [G,B,G]2 | %21
 [G,B,G]>[G,CG] [G,B,G][G,DG][K:bass] [F,D][E,^C] | [D,D]2 [D,D] [D,D]2 D, | %23
 G,,G,, G,,G,,/G,,/- G,,>G,, | G,,A,, [B,,G,][C,G,]/[C,G,]/- [C,G,][C,G,] | %25
 [D,G,D]>[D,CD] [D,B,D][D,A,D] [D,B,D][D,CD] |[M:5/8] G,,-G,,- G,,3 |] %27
V:3
 x6 | DGA z DB/B/ | z z/ A/G .ADG | .G3 z3 | z2[K:bass] D- D z z | D[K:treble]GA z z/ B/B | %6
 z z/ A/G .AEE | z .D2 z3 |[M:5/8] z [B,D][CE] [G,B,D]2 |[M:1/8] x |[M:3/4] z z/ c/ cc GA | %11
 B2 z2 z2 | z z/ e/ dB AG | z[K:bass] [A,D] [E,G,A,^C] .[D,F,A,D]3 | DG .A2 z/ B/B | %15
 z z/ A/ G.A EE | x6 |[M:5/8] z DE D2 |[M:1/8] x |[M:3/4] x6 | x6 | x6 | x5[K:bass] x | %23
 x[K:treble] x5 | x6 | x6 |[M:5/8] x5 |] %27
V:4
 x6 | G,,3 G,,3 | D,3 G,,3 | C,3 C,3 | G,,3 z3 | G,,3 G,,3 | G,,3 C,3 | D,3 D,3 |[M:5/8] G,,3 z2 | %9
[M:1/8][K:treble] x |[M:3/4][K:bass] C,3 C,3 | G,,3 G,,3 | G,4 z2 | D,2 z2 z2 | G,,2 z .G,,3 | %15
 B,,3 C,3 | D,3 D,3 |[M:5/8] G,,3 z2 |[M:1/8] x |[M:3/4] x6 | x6 | x4[K:bass] x2 | x6 | x6 | x6 | %25
 x6 |[M:5/8] x5 |] %27
V:5
 x6 | x6 | z .D2 z3 | z .E2 z3 | z3[K:bass] G,,3 | z3[K:treble] z .D2 | z .D2 z3 | x6 |[M:5/8] x5 | %9
[M:1/8] x |[M:3/4] z E z2 z2 | z D z2 z2 | z D z2 z2 | x[K:bass] x5 | z2 z2 .D2 | z ^D z2 z2 | x6 | %17
[M:5/8] x5 |[M:1/8] x |[M:3/4] x6 | x6 | x6 | x5[K:bass] x | x[K:treble] x5 | x6 | x6 | %26
[M:5/8] x5 |] %27

